public/avatar/hat/84.svg

<svg xmlns:xlink="http://www.w3.org/1999/xlink" height="92.9" width="100.7" xmlns="http://www.w3.org/2000/svg"><use height="27" transform="translate(18.6 41)" width="39.95" xlink:href="#a"/><defs><g id="a"><path d="M6.4-2.65Q8.3.8 7.4 4.3L-5.5.75q2.65-3.8 5-4.75 5.05-2.15 6.9 1.35" fill="#ffd400" fill-rule="evenodd" transform="translate(20.05 8.75)"/><path d="m5.45-.3 1.9-1.5q1.15-.8 2.25-.7 2.05.25 2.25 3.9.1 2.5-.95 4.3-.6 1-1.2.85L8.3 5.6Q4.8 3.05 5.7-.3h-.25M-8.6-2.35q.7-3.75 4.15-2.5 1.35.45 2.1 1.45.85 1.1.4 1.95L-2.5.35q-.75.95-2.15 1.6l-2.65.25q-2.05-.75-1.3-4.55" fill="#ffd400" fill-rule="evenodd" transform="translate(20.05 8.75)"/><path d="M16.85 3.9q.1 1-.85 2.2 1.75-.05 2.05 1.6.2 1.3-.55 2.9l-.65 1.3q0 .45.9 1.25.75 1.7-.55 3.3-1.8 2.3-2.95-.7l-2.4-6.05-1.25-2.6Q7.85 1.9 8.95.85L11.7.5q.05 2.55 3.5 2.35 1.55-.05 1.65 1.05" fill="#ffd400" fill-rule="evenodd" transform="translate(20.05 8.75)"/><path d="M14.2 8.35q-2.15 1.1-3.25-4.1-1.2-5.3.6-5.1Q11.75.7 13.1.4l2.25-.8q2.8-.5 2.95 3.15.2 3.7-2.35 3.6l-1.75 2" fill="#ffd400" fill-rule="evenodd" transform="translate(20.05 8.75)"/><path d="M17.1 4.85q1.75-.05 2.2 2.25.45 2.1-.55 3.3-1.55 1.9-2.65 1.5-.95-.35-.95-2.75.05-2.1.55-3.15l1.4-1.15m-34.05-.95q.1-1.1 1.65-1.05 3.5.2 3.5-2.35l2.75.35q1.1 1.05-1.65 6.25l-1.25 2.6-2.4 6.05q-1.15 3-2.95.7-1.3-1.6-.55-3.3.9-.8.95-1.25l-.7-1.3q-.75-1.6-.5-2.9.25-1.65 2-1.6-.95-1.2-.85-2.2" fill="#ffd400" fill-rule="evenodd" transform="translate(20.05 8.75)"/><path d="m-14.3 8.35-1.75-2q-2.55.1-2.35-3.6.15-3.65 2.95-3.15l2.25.8q1.35.3 1.55-1.25 1.8-.2.65 5.1-1.15 5.2-3.3 4.1" fill="#ffd400" fill-rule="evenodd" transform="translate(20.05 8.75)"/><path d="M-17.2 4.85-15.8 6q.5 1.05.55 3.15 0 2.4-.95 2.75-1.1.4-2.65-1.5-1-1.2-.55-3.3.45-2.3 2.2-2.25M-5.15-3l.5-.15Q-4.6 1-7.5 3.65l-2.35 2q-1.4.8-2.75-.25-1.5-1.1-1.9-2.95-.25-1.05.6-2.3l1.25-2.2q.75-1.05 2.1-1.45 3.7-1.1 5.4.5" fill="#ffd400" fill-rule="evenodd" transform="translate(20.05 8.75)"/><path d="M-2.15-.5Q-3.5.75-5.55 1.15-7.8 1.6-9.15.6q-1.95-1.5-.8-4.4 1.1-2.8 3.15-3.25 2.25-.5 4.5 1.95 2.4 2.5.15 4.6" fill="#ffd400" fill-rule="evenodd" transform="translate(20.05 8.75)"/><path d="M7-.35q-.5.7-3.85.7Q-1 .35-2.3-.9l-.6-.85-.25-.55q-.05-3.75 3-5.3 2.95-1.5 5.4.65 1.1 1.05 1.8 3.1.75 2.3-.05 3.5" fill="#ffd400" fill-rule="evenodd" transform="translate(20.05 8.75)"/><path d="M4.45-1.9q1.1-1.75 3-2.45 2.1-.75 3.8.5.95.65 1.5 2.5.5 1.85-.05 2.9-.7 1.2-4.1.55-2.8-.5-3.25-2.8l-.9-1.2m-13.35.5q-1.6 3-3.75 2.6l-1-.85q-.2-5.05 3.25-4.9 3.05.2 1.5 3.15m8.4 8.9q-2.8-.2-2.55-2.85-1.3.8-2.85-.6-1.55-1.35-.9-2.7L-9.9 1q.8-1.9 7.2-1.9 4.5.1 5.45.7 3.3 2 2.35 4.05Q4 6.1 2.1 4.9q.25 2.75-2.6 2.6" fill="#ffd400" fill-rule="evenodd" transform="translate(20.05 8.75)"/><path d="M-6.5 2q.75.95.45 2.2-.3 1.05-1.45 2-2.15 1-2.15.7l-.3 3.2q-1.75 2.05-2.05 1.55.7 1.25-.45 2.75-1.2 1.5-2.4.3-.7-.7-.55-2.85.15-3.45 2.55-6.1 3.2-3.5 4.3-4.1Q-7.35 1-6.5 2m18.8 3.75q2.4 2.65 2.55 6.1Q15 14 14.3 14.7q-1.2 1.2-2.4-.3-1.15-1.5-.45-2.75-.3.5-2.05-1.55l-.3-3.2q0 .3-2.15-.7-1.15-.95-1.45-2-.3-1.25.45-2.2Q6.8 1 8 1.65q1.1.6 4.3 4.1" fill="#ffd400" fill-rule="evenodd" transform="translate(20.05 8.75)"/><path d="M2.45-7.65Q.5-6.7.3-4.3.1-1.75 2.6-1.35L.85-.05q-.9.95 0 1.9-.6-.6-1.3 1.1-.65 1.6-.6 2.15l.65 1.55q.25.75-.55.9-1.1.25-1.7-.95l-1-1.9-2.25-.95q-.5 1-1 1.25-.05.7-1.3 1.1l-1.8.5q.85 3.25-2.15 4.8l.1 1.75q-.1.85-1 1.5l-1.2.75-1 1.5q-1.4 1.05-2.3-1.8-.55-1.85.9-3-2.15-1.6-2.4-3.45-.35-1.95-.1-2.55.2-.5 1.6-.85-.6-1.6-.5-2.6.15-1.15.75-1.95 1-1.25 4.1-.6-.75-5.5 4-4.6.55-2.55 3.3-2.35 2.3.15 4.1 1.7.4-1.55 1.55-1.95l2.6-.55h.1" fill="#c2a100" fill-rule="evenodd" transform="translate(20.05 8.75)"/><path d="M-7.65-4.85Q-8.3-7.2-5-6.9q3.25.25 3.7 2.35.95.85-.1 2.35-.7 1.05-2.3.85Q-4.65-1.5-6-2.7q-1.4-1.2-1.65-2.15m6.35.35v-.05l-.1-.1.1.15" fill="#ffd400" fill-rule="evenodd" transform="translate(20.05 8.75)"/><path d="M-15.9 17.6q-2.25-1.75-2.25-3.5 0-1.1.65-1.75l.6-.45q-2.65-.9-2.65-4.05 0-3.1 1.75-3-1.2-3.1 1-5 1.65-1.35 3.65.25-1-2.75.85-4.35 1.9-1.65 3.15-.4l.55-1.25q.9-1.3 2.45-1.35 2.5-.15 4 2 .35-3.45 5-2.9 4.6.65 4.1 4L8.1-4.6q1.5-.3 3.15.75 2.7 1.6 1.95 4.45l1.5-.9q1.8-.6 3.15 1.05 2.1 2.6.25 4.35 1.5 1.4 1.25 3.75-.25 2.4-2.5 3.05 1.75 2.35.85 3.95-.85 1.65-2.35 1.65" fill="none" stroke="#522319" stroke-linecap="round" stroke-linejoin="round" transform="translate(20.05 8.75)"/><path d="m-15.15 17.6 1.25-2.35q.85 0 1.85-1.4.65-.85.4-1.6l-.35-.6q1.35-.3 2.2-2.05.55-1.1.4-2l-.25-.7q1.5-.15 2.35-1.05.9-.85 1.4-2l1.1 1 1.75-.2.2 1.5Q-2.25 7.6-.4 7.6q3 0 2.5-2.7l.45.3 1.4.05Q5.2 4.85 5.6 3.6l.3 1.05Q6.35 5.8 6.95 6.2q1 .65 2.15.7L9 8.05q-.05 1.25.4 2.05.7 1.25 1.8 1.65V13q.2 1.4.9 1.85 1.1.75 1.85.4l.75 1.6 1 .9" fill="none" stroke="#522319" stroke-linecap="round" stroke-linejoin="round" transform="translate(20.05 8.75)"/><path d="m2.7-7.5-.1.35q1.1.5 1.35 2.05.25 1.45-.6 2.45Q1.95-.8-.3-2.85q-2.05-1.95-.6-3.8.75-.85 3.6-.85M1.2 2.1l-.35.4q.6 1.15.25 3-.35 2-1.85.85-1.15-.95-.2-2.95 1-2 2.15-1.3" fill="#ffd400" fill-rule="evenodd" transform="translate(20.05 8.75)"/><path d="m1.45-4.4 1.25-.75q2.2-.25 3 3.2.85 3.4-.75 4.7-1 .8-3.25.45-2.1-.35-3.15-1.3Q-3 .55-1.85-2q1.1-2.6 3.3-2.4" fill="#ffd400" fill-rule="evenodd" transform="translate(20.05 8.75)"/><path d="M-7.65-.35Q-8.4-2.8-5.6-2.6q2 .1 3.35.95.5.95-.15 2.1-.75 1.3-2 1.3-2.65 0-3.25-2.1" fill="#ffd400" fill-rule="evenodd" transform="translate(20.05 8.75)"/><path d="M1.95-7.6q-1.4 1.25-1 2.85.75 2.5 2.85 2.1Q2.35-.75.8-1.1q-1.3-.3-2.1-1.95Q-2.05-4.7-1.7-6q.45-1.5 2.15-1.4l-.6-.25 2.1.05" fill="#c2a100" fill-rule="evenodd" transform="translate(20.05 8.75)"/><path d="M-11.8 2.85q-.65 1.05-2.35 0-1.7-1.05-1.5-2.1Q-15.4-.8-13.5.4q1.85 1.2 1.7 2.45" fill="#ffd400" fill-rule="evenodd" transform="translate(20.05 8.75)"/><path d="m5.95-6 .15 1Q6.7-3.1 5-3.4q-1.7-.35-2.15-1.7-.6-1.75.85-2.05.95-.1 2.25 1.15m-.5 5.6L5.1-.75q1.05-.2 1.45.85.35.95 0 1.9-1.3.2-1.75-1.1-.45-1.4.65-1.3M17.3 1.05l-.1-.2q.95 1.05.05 1.85-.9.75-1.8-.3-.9-1.15.3-1.75 1.1-.6 1.55.4m-5.7-1.4Q10.45.5 9.55-1.3q-.9-1.75 1.05-1.8.9 0 1.35 1.1.4 1.15-.35 1.65" fill="#fffbd2" fill-rule="evenodd" transform="translate(20.05 8.75)"/></g></defs></svg>

<?xml version="1.0" encoding="UTF-8" standalone="no"?>
<svg xmlns:xlink="http://www.w3.org/1999/xlink" height="92.9px" width="100.7px" xmlns="http://www.w3.org/2000/svg">
  <g transform="matrix(1.0, 0.0, 0.0, 1.0, 38.65, 49.75)">
    <use height="27.0" transform="matrix(1.0, 0.0, 0.0, 1.0, -20.05, -8.75)" width="39.95" xlink:href="#shape0"/>
  </g>
  <defs>
    <g id="shape0" transform="matrix(1.0, 0.0, 0.0, 1.0, 20.05, 8.75)">
      <path d="M6.4 -2.65 Q8.3 0.8 7.4 4.3 L-5.5 0.75 Q-2.85 -3.05 -0.5 -4.0 4.55 -6.15 6.4 -2.65" fill="#ffd400" fill-rule="evenodd" stroke="none"/>
      <path d="M5.45 -0.3 L7.35 -1.8 Q8.5 -2.6 9.6 -2.5 11.65 -2.25 11.85 1.4 11.95 3.9 10.9 5.7 10.3 6.7 9.7 6.55 L8.3 5.6 Q4.8 3.05 5.7 -0.3 L5.45 -0.3" fill="#ffd400" fill-rule="evenodd" stroke="none"/>
      <path d="M-8.6 -2.35 Q-7.9 -6.1 -4.45 -4.85 -3.1 -4.4 -2.35 -3.4 -1.5 -2.3 -1.95 -1.45 L-2.5 0.35 Q-3.25 1.3 -4.65 1.95 L-7.3 2.2 Q-9.35 1.45 -8.6 -2.35" fill="#ffd400" fill-rule="evenodd" stroke="none"/>
      <path d="M16.85 3.9 Q16.95 4.9 16.0 6.1 17.75 6.05 18.05 7.7 18.25 9.0 17.5 10.6 L16.85 11.9 Q16.85 12.35 17.75 13.15 18.5 14.85 17.2 16.45 15.4 18.75 14.25 15.75 L11.85 9.7 10.6 7.1 Q7.85 1.9 8.95 0.85 L11.7 0.5 Q11.75 3.05 15.2 2.85 16.75 2.8 16.85 3.9" fill="#ffd400" fill-rule="evenodd" stroke="none"/>
      <path d="M14.2 8.35 Q12.05 9.45 10.95 4.25 9.75 -1.05 11.55 -0.85 11.75 0.7 13.1 0.4 L15.35 -0.4 Q18.15 -0.9 18.3 2.75 18.5 6.45 15.95 6.35 L14.2 8.35" fill="#ffd400" fill-rule="evenodd" stroke="none"/>
      <path d="M17.1 4.85 Q18.85 4.8 19.3 7.1 19.75 9.2 18.75 10.4 17.2 12.3 16.1 11.9 15.15 11.55 15.15 9.15 15.2 7.05 15.7 6.0 L17.1 4.85" fill="#ffd400" fill-rule="evenodd" stroke="none"/>
      <path d="M-16.95 3.9 Q-16.85 2.8 -15.3 2.85 -11.8 3.05 -11.8 0.5 L-9.05 0.85 Q-7.95 1.9 -10.7 7.1 L-11.95 9.7 -14.35 15.75 Q-15.5 18.75 -17.3 16.45 -18.6 14.85 -17.85 13.15 -16.95 12.35 -16.9 11.9 L-17.6 10.6 Q-18.35 9.0 -18.1 7.7 -17.85 6.05 -16.1 6.1 -17.05 4.9 -16.95 3.9" fill="#ffd400" fill-rule="evenodd" stroke="none"/>
      <path d="M-14.3 8.35 L-16.05 6.35 Q-18.6 6.45 -18.4 2.75 -18.25 -0.9 -15.45 -0.4 L-13.2 0.4 Q-11.85 0.7 -11.65 -0.85 -9.85 -1.05 -11.0 4.25 -12.15 9.45 -14.3 8.35" fill="#ffd400" fill-rule="evenodd" stroke="none"/>
      <path d="M-17.2 4.85 L-15.8 6.0 Q-15.3 7.05 -15.25 9.15 -15.25 11.55 -16.2 11.9 -17.3 12.3 -18.85 10.4 -19.85 9.2 -19.4 7.1 -18.95 4.8 -17.2 4.85" fill="#ffd400" fill-rule="evenodd" stroke="none"/>
      <path d="M-5.15 -3.0 L-4.65 -3.15 Q-4.6 1.0 -7.5 3.65 L-9.85 5.65 Q-11.25 6.45 -12.6 5.4 -14.1 4.3 -14.5 2.45 -14.75 1.4 -13.9 0.15 L-12.65 -2.05 Q-11.9 -3.1 -10.55 -3.5 -6.85 -4.6 -5.15 -3.0" fill="#ffd400" fill-rule="evenodd" stroke="none"/>
      <path d="M-2.15 -0.5 Q-3.5 0.75 -5.55 1.15 -7.8 1.6 -9.15 0.6 -11.1 -0.9 -9.95 -3.8 -8.85 -6.6 -6.8 -7.05 -4.55 -7.55 -2.3 -5.1 0.1 -2.6 -2.15 -0.5" fill="#ffd400" fill-rule="evenodd" stroke="none"/>
      <path d="M7.0 -0.35 Q6.5 0.35 3.15 0.35 -1.0 0.35 -2.3 -0.9 L-2.9 -1.75 -3.15 -2.3 Q-3.2 -6.05 -0.15 -7.6 2.8 -9.1 5.25 -6.95 6.35 -5.9 7.05 -3.85 7.8 -1.55 7.0 -0.35" fill="#ffd400" fill-rule="evenodd" stroke="none"/>
      <path d="M4.45 -1.9 Q5.55 -3.65 7.45 -4.35 9.55 -5.1 11.25 -3.85 12.2 -3.2 12.75 -1.35 13.25 0.5 12.7 1.55 12.0 2.75 8.6 2.1 5.8 1.6 5.35 -0.7 L4.45 -1.9" fill="#ffd400" fill-rule="evenodd" stroke="none"/>
      <path d="M-8.9 -1.4 Q-10.5 1.6 -12.65 1.2 L-13.65 0.35 Q-13.85 -4.7 -10.4 -4.55 -7.35 -4.35 -8.9 -1.4" fill="#ffd400" fill-rule="evenodd" stroke="none"/>
      <path d="M-0.5 7.5 Q-3.3 7.3 -3.05 4.65 -4.35 5.45 -5.9 4.05 -7.45 2.7 -6.8 1.35 L-9.9 1.0 Q-9.1 -0.9 -2.7 -0.9 1.8 -0.8 2.75 -0.2 6.05 1.8 5.1 3.85 4.0 6.1 2.1 4.9 2.35 7.65 -0.5 7.5" fill="#ffd400" fill-rule="evenodd" stroke="none"/>
      <path d="M-6.5 2.0 Q-5.75 2.95 -6.05 4.2 -6.35 5.25 -7.5 6.2 -9.65 7.2 -9.65 6.9 L-9.95 10.1 Q-11.7 12.15 -12.0 11.65 -11.3 12.9 -12.45 14.4 -13.65 15.9 -14.85 14.7 -15.55 14.0 -15.4 11.85 -15.25 8.4 -12.85 5.75 -9.65 2.25 -8.55 1.65 -7.35 1.0 -6.5 2.0" fill="#ffd400" fill-rule="evenodd" stroke="none"/>
      <path d="M12.3 5.75 Q14.7 8.4 14.85 11.85 15.0 14.0 14.3 14.7 13.1 15.9 11.9 14.4 10.75 12.9 11.45 11.65 11.15 12.15 9.4 10.1 L9.1 6.9 Q9.1 7.2 6.95 6.2 5.8 5.25 5.5 4.2 5.2 2.95 5.95 2.0 6.8 1.0 8.0 1.65 9.1 2.25 12.3 5.75" fill="#ffd400" fill-rule="evenodd" stroke="none"/>
      <path d="M2.45 -7.65 Q0.5 -6.7 0.3 -4.3 0.1 -1.75 2.6 -1.35 L0.85 -0.05 Q-0.05 0.9 0.85 1.85 0.25 1.25 -0.45 2.95 -1.1 4.55 -1.05 5.1 L-0.4 6.65 Q-0.15 7.4 -0.95 7.55 -2.05 7.8 -2.65 6.6 L-3.65 4.7 -5.9 3.75 Q-6.4 4.75 -6.9 5.0 -6.95 5.7 -8.2 6.1 L-10.0 6.6 Q-9.15 9.85 -12.15 11.4 L-12.05 13.15 Q-12.15 14.0 -13.05 14.65 L-14.25 15.4 -15.25 16.9 Q-16.65 17.95 -17.55 15.1 -18.1 13.25 -16.65 12.1 -18.8 10.5 -19.05 8.65 -19.4 6.7 -19.15 6.1 -18.95 5.6 -17.55 5.25 -18.15 3.65 -18.05 2.65 -17.9 1.5 -17.3 0.7 -16.3 -0.55 -13.2 0.1 -13.95 -5.4 -9.2 -4.5 -8.65 -7.05 -5.9 -6.85 -3.6 -6.7 -1.8 -5.15 -1.4 -6.7 -0.25 -7.1 L2.35 -7.65 2.45 -7.65" fill="#c2a100" fill-rule="evenodd" stroke="none"/>
      <path d="M-7.65 -4.85 Q-8.3 -7.2 -5.0 -6.9 -1.75 -6.65 -1.3 -4.55 -0.35 -3.7 -1.4 -2.2 -2.1 -1.15 -3.7 -1.35 -4.65 -1.5 -6.0 -2.7 -7.4 -3.9 -7.65 -4.85 M-1.3 -4.5 L-1.3 -4.55 -1.4 -4.65 -1.3 -4.5" fill="#ffd400" fill-rule="evenodd" stroke="none"/>
      <path d="M-15.9 17.6 Q-18.15 15.85 -18.15 14.1 -18.15 13.0 -17.5 12.35 L-16.9 11.9 Q-19.55 11.0 -19.55 7.85 -19.55 4.75 -17.8 4.85 -19.0 1.75 -16.8 -0.15 -15.15 -1.5 -13.15 0.1 -14.15 -2.65 -12.3 -4.25 -10.4 -5.9 -9.15 -4.65 L-8.6 -5.9 Q-7.7 -7.2 -6.15 -7.25 -3.65 -7.4 -2.15 -5.25 -1.8 -8.7 2.85 -8.15 7.45 -7.5 6.95 -4.15 L8.1 -4.6 Q9.6 -4.9 11.25 -3.85 13.95 -2.25 13.2 0.6 L14.7 -0.3 Q16.5 -0.9 17.85 0.75 19.95 3.35 18.1 5.1 19.6 6.5 19.35 8.85 19.1 11.25 16.85 11.9 18.6 14.25 17.7 15.85 16.85 17.5 15.35 17.5" fill="none" stroke="#522319" stroke-linecap="round" stroke-linejoin="round" stroke-width="1.0"/>
      <path d="M-15.15 17.6 L-13.9 15.25 Q-13.05 15.25 -12.05 13.85 -11.4 13.0 -11.65 12.25 L-12.0 11.65 Q-10.65 11.35 -9.8 9.6 -9.25 8.5 -9.4 7.6 L-9.65 6.9 Q-8.15 6.75 -7.3 5.85 -6.4 5.0 -5.9 3.85 L-4.8 4.85 -3.05 4.65 -2.85 6.15 Q-2.25 7.6 -0.4 7.6 2.6 7.6 2.1 4.9 L2.55 5.2 3.95 5.25 Q5.2 4.85 5.6 3.6 L5.9 4.65 Q6.35 5.8 6.95 6.2 7.95 6.85 9.1 6.9 L9.0 8.05 Q8.95 9.3 9.4 10.1 10.1 11.35 11.2 11.75 L11.2 13.0 Q11.4 14.4 12.1 14.85 13.2 15.6 13.95 15.25 L14.7 16.85 15.7 17.75" fill="none" stroke="#522319" stroke-linecap="round" stroke-linejoin="round" stroke-width="1.0"/>
      <path d="M2.7 -7.5 L2.6 -7.15 Q3.7 -6.65 3.95 -5.1 4.2 -3.65 3.35 -2.65 1.95 -0.8 -0.3 -2.85 -2.35 -4.8 -0.9 -6.65 -0.15 -7.5 2.7 -7.5" fill="#ffd400" fill-rule="evenodd" stroke="none"/>
      <path d="M1.2 2.1 L0.85 2.5 Q1.45 3.65 1.1 5.5 0.75 7.5 -0.75 6.35 -1.9 5.4 -0.95 3.4 0.05 1.4 1.2 2.1" fill="#ffd400" fill-rule="evenodd" stroke="none"/>
      <path d="M1.45 -4.4 L2.7 -5.15 Q4.9 -5.4 5.7 -1.95 6.55 1.45 4.95 2.75 3.95 3.55 1.7 3.2 -0.4 2.85 -1.45 1.9 -3.0 0.55 -1.85 -2.0 -0.75 -4.6 1.45 -4.4" fill="#ffd400" fill-rule="evenodd" stroke="none"/>
      <path d="M-7.65 -0.35 Q-8.4 -2.8 -5.6 -2.6 -3.6 -2.5 -2.25 -1.65 -1.75 -0.7 -2.4 0.45 -3.15 1.75 -4.4 1.75 -7.05 1.75 -7.65 -0.35" fill="#ffd400" fill-rule="evenodd" stroke="none"/>
      <path d="M1.95 -7.6 Q0.55 -6.35 0.95 -4.75 1.7 -2.25 3.8 -2.65 2.35 -0.75 0.8 -1.1 -0.5 -1.4 -1.3 -3.05 -2.05 -4.7 -1.7 -6.0 -1.25 -7.5 0.45 -7.4 L-0.15 -7.65 1.95 -7.6" fill="#c2a100" fill-rule="evenodd" stroke="none"/>
      <path d="M-11.8 2.85 Q-12.45 3.9 -14.15 2.85 -15.85 1.8 -15.65 0.75 -15.4 -0.8 -13.5 0.4 -11.65 1.6 -11.8 2.85" fill="#ffd400" fill-rule="evenodd" stroke="none"/>
      <path d="M5.95 -6.0 L6.1 -5.0 Q6.7 -3.1 5.0 -3.4 3.3 -3.75 2.85 -5.1 2.25 -6.85 3.7 -7.15 4.65 -7.25 5.95 -6.0" fill="#fffbd2" fill-rule="evenodd" stroke="none"/>
      <path d="M5.45 -0.4 L5.1 -0.75 Q6.15 -0.95 6.55 0.1 6.9 1.05 6.55 2.0 5.25 2.2 4.8 0.9 4.35 -0.5 5.45 -0.4" fill="#fffbd2" fill-rule="evenodd" stroke="none"/>
      <path d="M17.3 1.05 L17.2 0.85 Q18.15 1.9 17.25 2.7 16.35 3.45 15.45 2.4 14.55 1.25 15.75 0.65 16.85 0.05 17.3 1.05" fill="#fffbd2" fill-rule="evenodd" stroke="none"/>
      <path d="M11.6 -0.35 Q10.45 0.5 9.55 -1.3 8.65 -3.05 10.6 -3.1 11.5 -3.1 11.95 -2.0 12.35 -0.85 11.6 -0.35" fill="#fffbd2" fill-rule="evenodd" stroke="none"/>
    </g>
  </defs>
</svg>
